logos/sponsorblock.svg

<?xml version="1.0" encoding="UTF-8" standalone="no"?>
<svg
   xmlns:dc="http://purl.org/dc/elements/1.1/"
   xmlns:cc="http://creativecommons.org/ns#"
   xmlns:rdf="http://www.w3.org/1999/02/22-rdf-syntax-ns#"
   xmlns:svg="http://www.w3.org/2000/svg"
   xmlns="http://www.w3.org/2000/svg"
   xmlns:sodipodi="http://sodipodi.sourceforge.net/DTD/sodipodi-0.dtd"
   xmlns:inkscape="http://www.inkscape.org/namespaces/inkscape"
   viewBox="0 0 71.999997 72"
   version="1.1"
   id="svg16"
   sodipodi:docname="sponsorblock.svg"
   width="72"
   height="72"
   inkscape:version="0.92.4 (5da689c313, 2019-01-14)">
  <metadata
     id="metadata20">
    <rdf:RDF>
      <cc:Work
         rdf:about="">
        <dc:format>image/svg+xml</dc:format>
        <dc:type
           rdf:resource="http://purl.org/dc/dcmitype/StillImage" />
        <dc:title>LogoSponsorBlocker2</dc:title>
      </cc:Work>
    </rdf:RDF>
  </metadata>
  <sodipodi:namedview
     pagecolor="#ffffff"
     bordercolor="#666666"
     borderopacity="1"
     objecttolerance="10"
     gridtolerance="10"
     guidetolerance="10"
     inkscape:pageopacity="0"
     inkscape:pageshadow="2"
     inkscape:window-width="1920"
     inkscape:window-height="1001"
     id="namedview18"
     showgrid="false"
     inkscape:zoom="5.1375408"
     inkscape:cx="17.900421"
     inkscape:cy="27.226696"
     inkscape:window-x="449"
     inkscape:window-y="1344"
     inkscape:window-maximized="1"
     inkscape:current-layer="svg16" />
  <defs
     id="defs4">
    <style
       id="style2">.cls-1{fill:red;}.cls-2{fill:#fff;}</style>
  </defs>
  <title
     id="title6">LogoSponsorBlocker2</title>
  <g
     id="Layer_2"
     data-name="Layer 2"
     transform="matrix(0.12739392,0,0,0.12676027,-0.00682898,1.8e-4)"
     style="fill:#ffffff">
    <g
       id="Layer_1-2"
       data-name="Layer 1"
       style="fill:#ffffff">
      <path
         class="cls-1"
         d="m 282.58,568 a 65,65 0 0 1 -34.14,-9.66 C 95.41,463.94 2.54,300.46 0,121 a 64.91,64.91 0 0 1 34,-58.09 522.56,522.56 0 0 1 497.16,0 64.91,64.91 0 0 1 34,58.12 c -2.53,179.43 -95.4,342.91 -248.42,437.3 A 65,65 0 0 1 282.58,568 Z m 0,-548.31 A 502.24,502.24 0 0 0 43.4,80.22 45.27,45.27 0 0 0 19.7,120.75 c 2.44,172.67 91.81,330 239.07,420.83 a 46.19,46.19 0 0 0 47.61,0 C 453.64,450.73 543,293.42 545.45,120.75 A 45.26,45.26 0 0 0 521.75,80.21 502.26,502.26 0 0 0 282.58,19.69 Z"
         id="path8"
         inkscape:connector-curvature="0"
         style="fill:#ffffff" />
      <path
         style="fill:#ffffff;stroke-width:0.1270767"
         d="M 36.263672 5.4121094 A 61.136342 60.832254 0 0 0 6.9199219 12.728516 A 2.870185 2.8559089 0 0 0 5.4296875 15.265625 C 5.7354329 36.794589 17.277532 55.601918 34.496094 66.169922 A 2.8638153 2.8495709 0 0 0 37.488281 66.169922 C 54.706843 55.601918 66.248942 36.794589 66.554688 15.265625 A 2.870185 2.8559089 0 0 0 65.0625 12.728516 A 61.136342 60.832254 0 0 0 36.263672 5.4121094 z M 28.072266 18.474609 L 52.388672 32.443359 L 28.072266 46.412109 L 28.072266 18.474609 z "
         transform="matrix(7.8496682,0,0,7.8889071,0.05360523,-0.00142)"
         id="path10" />
    </g>
  </g>
</svg>

<svg xmlns="http://www.w3.org/2000/svg" version="1.1" id="svg16" width="72" height="72"><defs id="defs4"><style id="style2"></style></defs><g id="Layer_2" data-name="Layer 2" transform="matrix(.1274 0 0 .12676 -.007 0)" fill="#fff"><g id="Layer_1-2" data-name="Layer 1" fill="#fff"><path d="M282.58 568a65 65 0 01-34.14-9.66C95.41 463.94 2.54 300.46 0 121a64.91 64.91 0 0134-58.09 522.56 522.56 0 01497.16 0 64.91 64.91 0 0134 58.12c-2.53 179.43-95.4 342.91-248.42 437.3a65 65 0 01-34.16 9.67zm0-548.31A502.24 502.24 0 0043.4 80.22a45.27 45.27 0 00-23.7 40.53c2.44 172.67 91.81 330 239.07 420.83a46.19 46.19 0 0047.61 0C453.64 450.73 543 293.42 545.45 120.75a45.26 45.26 0 00-23.7-40.54 502.26 502.26 0 00-239.17-60.52z" id="path8"/><path d="M36.264 5.412A61.136 60.832 0 006.92 12.73a2.87 2.856 0 00-1.49 2.537c.305 21.529 11.848 40.336 29.066 50.904a2.864 2.85 0 002.992 0c17.219-10.568 28.76-29.375 29.067-50.904a2.87 2.856 0 00-1.493-2.537 61.136 60.832 0 00-28.798-7.317zm-8.192 13.063L52.39 32.443l-24.317 13.97V18.474z" transform="matrix(7.84967 0 0 7.8889 .054 -.001)" id="path10" stroke-width=".127"/></g></g></svg>
